stories/assets/img/rewards_ads.svg

<?xml version="1.0" encoding="UTF-8"?>
<svg width="106px" height="80px" viewBox="0 0 106 80" version="1.1" xmlns="http://www.w3.org/2000/svg" xmlns:xlink="http://www.w3.org/1999/xlink">
    <!-- Generator: Sketch 50.2 (55047) - http://www.bohemiancoding.com/sketch -->
    <title>img</title>
    <desc>Created with Sketch.</desc>
    <defs></defs>
    <g id="settings" stroke="none" stroke-width="1" fill="none" fill-rule="evenodd">
        <g id="2-ads-container" transform="translate(-197.000000, -269.000000)">
            <g id="1-initial-state" transform="translate(100.000000, 99.000000)">
                <g id="blankslate-graphics" transform="translate(97.000000, 170.000000)">
                    <g id="img">
                        <g id="megaphone">
                            <path d="M77.8818056,21.8253559 L77.8818056,2.66874576 C77.8818056,1.67077966 77.3396061,0.781016949 76.4501279,0.325423729 C75.5828798,-0.130169492 74.5196266,-0.0653559322 73.6957545,0.499254237 C54.6542506,13.6675254 43.7232379,15.3605424 36.3273657,15.3605424 L15.1815857,15.3605424 C6.81029668,15.3605424 0,22.1719322 0,30.5469831 L0,36.1865763 C0,44.5616271 6.81029668,51.3730169 15.1815857,51.3730169 L25.3318312,51.3730169 L36.3485115,78.0797288 C36.7616675,79.0999322 37.7590435,79.7290847 38.8000665,79.7290847 C39.1462609,79.7290847 39.472665,79.6634576 39.8188593,79.5330169 C41.1860153,78.9694915 41.8138824,77.4291525 41.2716829,76.0626441 L31.0791458,51.3730169 L36.3062199,51.3730169 C62.0712685,51.3730169 72.6113555,65.0193898 73.0890332,65.6485424 C73.6090026,66.3435932 74.3892276,66.7332881 75.2141841,66.7332881 C75.4958568,66.7332881 75.7778005,66.6898983 76.0380563,66.6031186 C77.1224552,66.2343051 77.8595754,65.236339 77.8595754,64.0870508 L77.8595754,44.9515932 C83.1302967,43.7364068 87.055821,39.0288814 87.055821,33.3879322 C87.0991969,27.7480678 83.1514425,23.0183051 77.8818056,21.8253559 Z M5.31409719,36.1865763 L5.31409719,30.5469831 C5.31409719,25.1007458 9.73844501,20.6749831 15.1815857,20.6749831 L24.4634987,20.6749831 L24.4634987,46.0585763 L15.1815857,46.0585763 C9.73844501,46.0585763 5.31409719,41.6325424 5.31409719,36.1865763 Z M72.5679795,57.6867797 C66.6693913,52.827661 55.0871969,46.0585763 36.3062199,46.0585763 L29.7564501,46.0585763 L29.7564501,20.6749831 L36.3062199,20.6749831 C43.8970128,20.6749831 54.7832941,19.1134915 72.5679795,7.6580339 L72.5679795,57.6867797 Z M77.8818056,39.3540339 L77.8818056,27.400678 C80.1810026,28.4208814 81.7642251,30.7194576 81.7642251,33.3879322 C81.7853708,36.0352542 80.1810026,38.3349153 77.8818056,39.3540339 Z" id="Fill-1" fill="#CEB4E1"></path>
                            <path d="M103.24959,30 L92.538645,30 C91.0175343,30 89.7882353,31.1184211 89.7882353,32.499492 C89.7882353,33.8815789 91.0175343,35 92.538645,35 L103.24959,35 C104.770422,35 106,33.8815789 106,32.499492 C106,31.097592 104.770422,30 103.24959,30 Z" id="Fill-4" fill="#F3CD72"></path>
                            <path d="M88.7123601,24.6509587 C89.1145552,25.6350433 90.0854709,26.25 91.1194606,26.25 C91.4358857,26.25 91.7536303,26.1889914 92.0700555,26.0856868 L101.866566,22.3539068 C103.196396,21.8412293 103.850887,20.385225 103.323072,19.0935339 C102.795257,17.8008174 101.296526,17.1648409 99.9656405,17.6775184 L90.1701853,21.4105801 C88.8609401,21.9022379 88.2061855,23.3582422 88.7123601,24.6509587 Z" id="Fill-5" fill="#F3CD72"></path>
                            <path d="M101.867833,43.9098983 L92.078895,40.1775926 C90.7500929,39.6648428 89.2512021,40.3006525 88.7237951,41.5925256 C88.196388,42.8843987 88.8506365,44.3406081 90.1804933,44.8533579 L99.968377,48.5869456 C100.285612,48.70898 100.601793,48.75 100.917973,48.75 C101.951164,48.75 102.922648,48.135213 103.323213,47.1507334 C103.85062,45.8788575 103.196636,44.4226481 101.867833,43.9098983 Z" id="Fill-6" fill="#F3CD72"></path>
                        </g>
                        <text id="Ads" font-family="Poppins-SemiBold, Poppins" font-size="12" font-weight="500" line-spacing="28" fill="#9752CB">
                            <tspan x="41" y="32">Ads</tspan>
                        </text>
                    </g>
                </g>
            </g>
        </g>
    </g>
</svg>

<svg width='106' height='80' xmlns='http://www.w3.org/2000/svg'>
  <g fill='none' fill-rule='evenodd'>
    <path d='M77.882 21.825V2.67c0-.998-.542-1.888-1.432-2.344A2.678 2.678 0 0 0 73.696.5C54.654 13.668 43.723 15.361 36.327 15.361H15.182C6.81 15.36 0 22.17 0 30.547v5.64c0 8.375 6.81 15.186 15.182 15.186h10.15L36.349 78.08a2.655 2.655 0 0 0 2.451 1.65c.346 0 .673-.067 1.019-.197 1.367-.564 1.995-2.104 1.453-3.47l-10.193-24.69h5.227c25.765 0 36.305 13.646 36.783 14.276a2.646 2.646 0 0 0 2.95.954 2.658 2.658 0 0 0 1.82-2.516V44.952c5.271-1.216 9.197-5.923 9.197-11.564.043-5.64-3.905-10.37-9.174-11.563zM5.314 36.187v-5.64c0-5.446 4.424-9.872 9.868-9.872h9.281v25.384h-9.281c-5.444 0-9.868-4.426-9.868-9.872zm67.254 21.5c-5.899-4.86-17.48-11.628-36.262-11.628h-6.55V20.675h6.55c7.591 0 18.477-1.562 36.262-13.017v50.029zm5.314-18.333V27.401a6.535 6.535 0 0 1 3.882 5.987c.021 2.647-1.583 4.947-3.882 5.966z' fill='#CEB4E1'/>
    <path d='M103.25 30H92.539c-1.521 0-2.75 1.118-2.75 2.5s1.229 2.5 2.75 2.5h10.71c1.521 0 2.751-1.118 2.751-2.5 0-1.402-1.23-2.5-2.75-2.5zM88.712 24.651a2.6 2.6 0 0 0 2.407 1.599c.317 0 .635-.061.951-.164l9.797-3.732c1.33-.513 1.984-1.969 1.456-3.26-.528-1.293-2.026-1.93-3.357-1.416L90.17 21.41a2.493 2.493 0 0 0-1.458 3.24zM101.868 43.91l-9.79-3.732c-1.328-.513-2.827.123-3.354 1.415-.528 1.291.127 2.748 1.456 3.26l9.788 3.734c.318.122.634.163.95.163a2.596 2.596 0 0 0 2.405-1.6c.528-1.271-.126-2.727-1.455-3.24z' fill='#F3CD72'/>
    <text font-family='Poppins-SemiBold, Poppins' font-size='12' font-weight='500' fill='#9752CB'>
      <tspan x='41' y='32'>Ads</tspan>
    </text>
  </g>
</svg>
